X:1
T:Mighty to Save
T:Mighty to Save
T:Gordon Vincent Thompson
T:Gordon Vincent Thompson, 1911
T:Public Domain Courtesy of the Cyber Hymnal™
T:Public Domain Courtesy of the Cyber Hymnal™
C:Gordon Vincent Thompson
Z:Public Domain
Z:Courtesy of the Cyber Hymnal™
%%score ( 1 2 ) ( 3 4 )
L:1/8
Q:1/4=130
M:3/4
K:Ab
V:1 treble 
V:2 treble 
V:3 bass 
V:4 bass 
V:1
 E2 | [CA]2 [EA]2 [EB]2 | [Ec]2 [Ec]2 [_Gc]2 | [Fd]2 [FA]2 [_FB]2 | [Ec]6 | [Gc]2 [GB]2 [^F=A]2 | %6
w: 1.~I|have a Re-|deem- er who|saves me from|sin;|Now He’s a-|
w: 2.~I|have a Re-|deem- er to|pi- lot me|o’er|Life’s ang- ry|
w: 3.~I|have a Re-|deem- er, so|watch- ful is|He,|Walk- ing be-|
w: 4.~I|have a Re-|deem- er, I|know He is|mine,|Prov- ing His|
 [GB]2 E2 [DE]2 | [CA]2 [DB]2 [=D=B]2 | [Ec]4 [Ec]2 | [Ee]2 [Ee]2 [Ee]2 | [Ee]2 [Ec]2 [EA]2 | %11
w: bid- ing for-|ev- er with-|in, His|life for my|ran- som so|
w: bil- lows to|Heav- en’s fair|shore; I|know He will|keep me, tho’|
w: side me, my|ter- rors all|flee; He|guards me in|dan- ger, and|
w: pre- sence by|pow- er di-|vine; I|sure- ly can|trust Him to|
 [DF]2 [Fd]2 [FB]2 | [=Ec]4 [Ec]2 | F2 [EG]2 [FA]2 | E2 [Fd]4 | [Ec]2 [Ec]3 [DB] | [CA]6 || %17
w: free- ly He|gave— ’Tis|Je- sus my|Sav- ior,|might- y to|save.|
w: wild be the|wave— ’Tis|Je- sus my|Sav- ior,|might- y to|save.|
w: bids me be|brave— ’Tis|Je- sus my|Sav- ior,|might- y to|save.|
w: con- quer the|grave— This|Je- sus my|Sav- ior,|might- y to|save.|
"^Refrain" [GB]2 [GB]3 [^F=A] | [GB]4 E2 | [Ec]2 [Ac]3 [A=B] | [Ac]4 [Ac]2 | [Ae]2 [Ac]2 [GB]2 | %22
w: |||||
w: |||||
w: Might- y to|save! He’s|might- y to|save, Yes!|Je- sus my|
w: |||||
 [EA]2 [EG]2 [EA]2 | [=Dc]2 [DB]2 [DF]2 | B6 | [CA]2 [EA]2 [EB]2 | [Ec]2 [Ec]2 [_Gc]2 | %27
w: |||||
w: |||||
w: Sav- ior is|might- y to|save!|Sin’s old al-|lure- ments no|
w: |||||
 [Fd]2 [FA]2 [FB]2 | [=Ec]6 | F2 [EG]2 [FA]2 | E2 [Fd]4 | [Ec]2 [Ec]3 [DB] | [CA]4 |] %33
w: ||||||
w: ||||||
w: long- er I|crave;|Je- sus al-|lures me,|might- y to|save.|
w: ||||||
V:2
 E2 | x6 | x6 | x6 | x6 | x6 | x2 E2 x2 | x6 | x6 | x6 | x6 | x6 | x6 | F2 x4 | E2 x4 | x6 | x6 || %17
 x6 | x4 E2 | x6 | x6 | x6 | x6 | x6 | (E4 D2) | x6 | x6 | x6 | x6 | F2 x4 | E2 x4 | x6 | x4 |] %33
V:3
 E,2 | [A,,E,]2 [C,A,]2 [E,G,]2 | A,2 A,2 [A,,A,]2 | [D,A,]2 [D,D]2 [D,A,]2 | [A,,A,]6 | %5
 [E,D]2 [E,D]2 [E,C]2 | [E,D]2 [E,G,]2 [E,G,]2 | [A,,A,]2 [A,,G,]2 [A,,F,]2 | [A,,E,]4 [A,,A,]2 | %9
 [A,C]2 [G,B,]2 [B,D]2 | [A,C]2 A,2 [C,A,]2 | [D,A,]2 [E,A,]2 (G,F,) | [C,G,]4 [C,B,]2 | %13
 [D,A,]2 [D,A,]2 [D,A,]2 | [C,A,]2 [D,A,]4 | [E,A,]2 [E,G,]3 [E,G,] | [A,,A,]6 || %17
 [E,D]2 [E,D]3 [E,C] | [E,D]4 [G,D]2 | [A,C]2 [A,E]3 [A,=D] | [A,E]4 [A,E]2 | %21
 [A,C]2 [A,E]2 [E,D]2 | [A,C]2 [B,D]2 [A,C]2 | [F,A,]2 [F,A,]2 [B,,A,]2 | [E,G,]6 | %25
 [A,,A,]2 [C,A,]2 [E,G,]2 | A,2 A,2 [A,,A,]2 | [D,A,]2 [D,A,]2 (G,F,) | (G,4 B,2) | %29
 [D,A,]2 [D,A,]2 [D,A,]2 | [C,A,]2 [D,A,]4 | [E,A,]2 [E,G,]3 [E,G,] | [A,,A,]4 |] %33
V:4
 E,2 | x6 | A,2 A,2 x2 | x6 | x6 | x6 | x6 | x6 | x6 | x6 | x2 A,2 x2 | x4 D,2 | x6 | x6 | x6 | %15
 x6 | x6 || x6 | x6 | x6 | x6 | x6 | x6 | x6 | x6 | x6 | A,2 A,2 x2 | x4 D,2 | C,6 | x6 | x6 | x6 | %32
 x4 |] %33

